

d1 
  $ limit
  $ stack [
    pad1
    , iter 8 $ pad2
    , (0.5 ~>) $ pad4
    , (0.25 ~>) $ superimpose (0.125 <~) $ struct "1*2" $ pad7
    , ((0.0625*3) ~>) $ roll 1 $ fast 2 $ pad6
  ] # rytm # cps (140/120/2)

  hush